korla/status/symbolic/display-brightness-high-symbolic.svg

<svg style="clip-rule:evenodd;fill-rule:evenodd;stroke-linejoin:round;stroke-miterlimit:2" version="1.1" viewBox="0 0 16 16" xmlns="http://www.w3.org/2000/svg">
 <path d="m8 0.721-2.189 2.279h-2.811v2.811l-2.279 2.189 2.279 2.221v2.779h2.811l2.189 2.279 2.221-2.279h2.779v-2.779l2.279-2.221-2.279-2v-3h-2.779l-2.221-2.279zm0 2.515c2.632 0 4.764 2.132 4.764 4.764s-2.132 4.764-4.764 4.764-4.764-2.132-4.764-4.764 2.132-4.764 4.764-4.764z" style="fill:rgb(223,223,223)"/>
 <path d="m8 3.76c2.342 0 4.24 1.898 4.24 4.24s-1.898 4.24-4.24 4.24-4.24-1.898-4.24-4.24 1.898-4.24 4.24-4.24z" style="fill:rgb(223,223,223)"/>
</svg>

<svg xmlns="http://www.w3.org/2000/svg" width="16" height="16" version="1.1">
 <path style="fill:#dfdfdf" d="M 8,0.72 5.81,3 H 3 V 5.81 L 0.72,8 3,10.22 V 13 H 5.81 L 8,15.28 10.22,13 H 13 V 10.22 L 15.28,8 13,6 V 3 H 10.22 Z M 8,4 C 10.21,4 12,5.79 12,8 12,10.21 10.21,12 8,12 5.79,12 4,10.21 4,8 4,5.79 5.79,4 8,4 Z M 8,5 C 6.3431,5 5,6.3431 5,8 5,9.6569 6.3431,11 8,11 9.6569,11 11,9.6569 11,8 11,6.3431 9.6569,5 8,5 Z"/>
</svg>
